X: 1
T: Bill Sullivan's
R: polka
M: 2/4
L: 1/8
K: Amaj
|: a2 a>f | ec a>f | ec a>f | ec BA | a2 a>f | ec a2 | ce B>c| BA A2 :|
|: ce ec | df fA | ce eA | cB AB | ce eA | df f2 | ce B>c | BA A2 :|


Tune 481	Setting 13381

